src/assets/menuWave.svg

<svg width="1440" height="828" viewBox="0 0 1440 828" fill="none" xmlns="http://www.w3.org/2000/svg">
<path d="M-162.36 125.417C-240.802 125.417 -372.227 41.8058 -428.134 0H-472V734.214C-422.974 809.987 10.5228 783.858 175.664 734.214C340.806 684.569 575.616 768.181 779.463 815.212C983.309 862.244 1125.23 765.568 1287.79 749.891C1417.84 737.349 1603.45 788.213 1680 815.212V151.546C1638.71 151.546 1612.91 104.514 1507.12 62.7086C1401.32 20.9029 1274.89 41.8058 1194.9 49.6443C1114.91 57.4829 779.463 156.772 678.83 151.546C578.197 146.32 431.117 54.8701 317.583 28.7415C204.048 2.61286 -64.307 125.417 -162.36 125.417Z" fill="#F08F00"/>
</svg>

<svg xmlns="http://www.w3.org/2000/svg" width="1440" height="828" fill="none"><path fill="#F08F00" d="M-162.36 125.417c-78.442 0-209.867-83.611-265.774-125.417H-472v734.214c49.026 75.773 482.523 49.644 647.664 0 165.142-49.645 399.952 33.967 603.799 80.998s345.767-49.644 508.327-65.321c130.05-12.542 315.66 38.322 392.21 65.321V151.546c-41.29 0-67.09-47.032-172.88-88.837-105.8-41.806-232.23-20.903-312.22-13.065-79.99 7.839-415.437 107.128-516.07 101.902S431.117 54.87 317.583 28.742c-113.535-26.13-381.89 96.675-479.943 96.675"/></svg>
